X:1
T:Christmas Morn (Conant), CM
T:Christmas Morn (Conant), CM
T:Albert F. Conant, 1903
T:Public Domain Courtesy of the Cyber Hymnal™
C:Albert F. Conant, 1903
Z:Public Domain
Z:Courtesy of the Cyber Hymnal™
%%score ( 1 2 ) ( 3 4 )
L:1/8
Q:1/4=110
M:4/4
K:F
V:1 treble 
V:2 treble 
V:3 bass 
V:4 bass 
V:1
 [FA]2 | [FB]2 [FA]2 [Ec]2 E2 | [DF]2 [EG]2 [FA]2 [Fc]2 | d2 c2 [GB]2 [FA]2 | [EG]6 [EG]2 | %5
 [FA]2 [G=B]2 [Gc]2 [G^c]2 | [Fd]2 [^Fc]2 !fermata![GB]2 [GB]2 | [FA]2 [CG]2 [CD]2 [B,E]2 | %8
 [A,F]6 |] %9
V:2
 x2 | x6 E2 | x8 | F4 x4 | x8 | x8 | x8 | x8 | x6 |] %9
V:3
 [F,C]2 | [F,D]2 [F,C]2 [C,C]2 [C,B,]2 | [D,A,]2 [C,C]2 [F,C]2 [A,C]2 | B,2 [A,C]2 [G,D]2 C2 | %4
 C6 [C,C]2 | [F,C]2 [F,D]2 (CB,) A,2 | [D,A,]2 [D,D]2 !fermata![G,D]2 [G,,D]2 | C2 B,2 A,2 G,2 | %8
 [F,,F,]6 |] %9
V:4
 x2 | x8 | x8 | B,2 x2 (A,B,) x2 | C6 x2 | x4 E,2 A,2 | x8 | C,4 C,4 | x6 |] %9

